X:1
T:Palmer's Gate
C:Joe Liddy
S:Mary Crowley
R:reel
M:4/4
L:1/8
K:Em
GA|BEEF GABG|AdBA GEED|G3 A BAGA|BedB A2 GA|
BEEF GABG|AdBA GEED|GABd edBA|GEFD E2:|:GA|
Beed e2 ef|gefd edBA|G2 BG dGBA|GABe dBAd|
Beed e2 ef|gefd edBA|GABd edBA|GEFD E2:|

composer: Joe Liddy
